packages/ffe-icons/icons/open/300/md/heap_snapshot_large.svg

<svg xmlns="http://www.w3.org/2000/svg" height="24" viewBox="0 -960 960 960" width="24"><path d="M580-230.001q20.769 0 35.384-14.615 14.615-14.615 14.615-35.384t-14.615-35.384Q600.769-329.999 580-329.999t-35.384 14.615Q530.001-300.769 530.001-280t14.615 35.384q14.615 14.615 35.384 14.615Zm-222.692-27.307q8.308 8.307 20.884 8.307 12.577 0 20.884-8.307l204-204q8.308-8.308 8.308-20.884 0-12.577-8.308-20.884-8.307-8.308-20.884-8.308-12.576 0-20.884 8.308L356.924-298.692q-8.308 8.308-8.116 20.692.193 12.384 8.5 20.692ZM380-430.001q20.769 0 35.384-14.615 14.615-14.615 14.615-35.384t-14.615-35.384Q400.769-529.999 380-529.999t-35.384 14.615Q330.001-500.769 330.001-480t14.615 35.384q14.615 14.615 35.384 14.615Zm-127.691 330q-30.308 0-51.308-21t-21-51.308v-615.382q0-30.308 21-51.308t51.308-21h317.692l209.998 209.998v477.692q0 30.308-21 51.308t-51.308 21H252.309Zm287.692-580.768V-800H252.309q-4.616 0-8.463 3.846-3.846 3.847-3.846 8.463v615.382q0 4.616 3.846 8.463 3.847 3.846 8.463 3.846h455.382q4.616 0 8.463-3.846 3.846-3.847 3.846-8.463v-447.692H600.769q-25.307 0-43.037-17.731-17.731-17.73-17.731-43.037ZM240-800v179.999V-800v640V-800Z"/></svg>

<svg xmlns="http://www.w3.org/2000/svg" height="24" viewBox="0 -960 960 960" width="24"><path d="M580-230q20.77 0 35.38-14.62Q630-259.23 630-280q0-20.77-14.62-35.38Q600.77-330 580-330q-20.77 0-35.38 14.62Q530-300.77 530-280q0 20.77 14.62 35.38Q559.23-230 580-230Zm-222.69-27.31q8.31 8.31 20.88 8.31 12.58 0 20.89-8.31l204-204q8.3-8.31 8.3-20.88 0-12.58-8.3-20.89-8.31-8.3-20.89-8.3-12.57 0-20.88 8.3L356.92-298.69q-8.3 8.31-8.11 20.69.19 12.38 8.5 20.69ZM380-430q20.77 0 35.38-14.62Q430-459.23 430-480q0-20.77-14.62-35.38Q400.77-530 380-530q-20.77 0-35.38 14.62Q330-500.77 330-480q0 20.77 14.62 35.38Q359.23-430 380-430ZM252.31-100Q222-100 201-121q-21-21-21-51.31v-615.38Q180-818 201-839q21-21 51.31-21H570l210 210v477.69Q780-142 759-121q-21 21-51.31 21H252.31ZM540-680.77V-800H252.31q-4.62 0-8.46 3.85-3.85 3.84-3.85 8.46v615.38q0 4.62 3.85 8.46 3.84 3.85 8.46 3.85h455.38q4.62 0 8.46-3.85 3.85-3.84 3.85-8.46V-620H600.77q-25.31 0-43.04-17.73T540-680.77ZM240-800v180-180V-160v-640Z"/></svg>
